X:2
T: Jetz wemmer go (Schottisch) GDC chords
M:2/4
L:1/8
K:G %%MIDI gchordon
d  |: "G"bb "D7"aa | "G"gg d>e | "D7"ff e>f | "G"gg dd/g/ | bb "D7"aa | "G"gg d>e | 
"D7"ff e>f |1 "G"gg gd :|2 "G"gg gd/f/ |: [K:D] "D"a>b a^g | af f>b | "A7"ae e>g | "D"fd dd/f/ | 
a>b a^g | af f>b | "A7"ae e/g/f/e/ |1 "D"dd dd/f/ :|2 "D"dd d"_>Teil A"z |: [K:C]  "C"e>^d e>d | 
eag2 | "G7"gf f/e/f | "C"ag g/^f/g | e>^d e>d | eag2 |1 "G"b>b "D7"a>a | "G7".g2 !>!>f2 :|2 "G7"b>a g/f/e/d/ | "C"cc cz |] 

